src/assets/icons/tech/ruby.svg

<svg height="96" viewBox="0 0 48 48" width="96" xmlns="http://www.w3.org/2000/svg"><path d="m42 14-2 26-26 2z" fill="#9b1010"/><path d="m28 28 12 12 2-26z" fill="#b71c1c"/><path d="m39.996094 8.003906c-4.554688-4.554687-15.410156-1.085937-24.242188 7.75-8.835937 8.832032-12.304687 19.6875-7.75 24.242188 4.554688 4.554687 15.410157 1.085937 24.242188-7.75 8.835937-8.832031 12.304687-19.6875 7.75-24.242188z" fill="#c62828"/><path d="m10 17 7-7 8-4 6 4-3 9-9 8-9 3-4-6z" fill="#e53935"/><path d="m31 10-6-4h11zm11 5-11-5-3 9zm-23 12 13.234375 5.234375-4.234375-13.234375zm-9 3 4 12 5-15zm-4-6v11l4-5z" fill="#ff5252"/></svg>

<svg xmlns="http://www.w3.org/2000/svg" x="0px" y="0px"
     width="96" height="96"
     viewBox="0 0 48 48"
     style="fill:#000000;"><g id="surface1"><path style=" fill:#9B1010;" d="M 42 14 L 40 40 L 14 42 Z "></path><path style=" fill:#B71C1C;" d="M 28 28 L 40 40 L 42 14 Z "></path><path style=" fill:#C62828;" d="M 39.996094 8.003906 C 35.441406 3.449219 24.585938 6.917969 15.753906 15.753906 C 6.917969 24.585938 3.449219 35.441406 8.003906 39.996094 C 12.558594 44.550781 23.414063 41.082031 32.246094 32.246094 C 41.082031 23.414063 44.550781 12.558594 39.996094 8.003906 Z "></path><path style=" fill:#E53935;" d="M 10 17 L 17 10 L 25 6 L 31 10 L 28 19 L 19 27 L 10 30 L 6 24 Z "></path><path style=" fill:#FF5252;" d="M 31 10 L 25 6 L 36 6 Z M 42 15 L 31 10 L 28 19 Z M 19 27 L 32.234375 32.234375 L 28 19 Z M 10 30 L 14 42 L 19 27 Z M 6 24 L 6 35 L 10 30 Z "></path></g></svg>
